X: 78
T:The Woods of Old Limerick
M:6/8
L:1/8
F:http://blackrosetheband.googlepages.com/ABCTUNES.ABC May 2009
S:Patrick Street - 3 Irish times 3 - Track 3
O:B
K:G
"G"B2G ABc|"D"dgg fdc|"G"B2G ABc|"D"ADD ABc|
"G"B2G ABc|"D"dgg fdc|"G"B2G "D"Adc|1 "G"AGF G2A:|2 "G"AGF G2 a|
|:"G"bgf "C"gag|"D"fd^c dga|"G"bgf "C"gab|"D"c'af "G"g2a|
bag "D"afd|"G"gag "D"fdc|"G"B2G "D"Adc|"G"AGF G3:|

